resources/images/icon-dribble.svg

<svg width="24" height="24" viewBox="0 0 24 24" fill="none" xmlns="http://www.w3.org/2000/svg">
<path fill-rule="evenodd" clip-rule="evenodd" d="M16.1686 6.81427C15.008 5.83416 13.5328 5.30316 12.0122 5.31825C11.4734 5.32008 10.9373 5.3938 10.418 5.53744C11.4201 6.59981 12.2768 7.78979 12.9659 9.07639C14.2096 8.60765 15.3123 7.82885 16.1686 6.81427ZM9.06334 6.03502C10.092 7.07772 10.9702 8.25809 11.6727 9.54219C10.065 10.0164 8.3963 10.2527 6.71983 10.2436C6.2723 10.2443 5.93353 10.2341 5.70354 10.2129C5.94277 9.31988 6.36598 8.48637 6.94616 7.76559C7.51759 7.04227 8.24005 6.45173 9.06334 6.03502ZM12.689 11.6465C11.5155 11.9484 10.429 12.5196 9.516 13.3146C8.53986 14.0707 7.73142 15.0204 7.14173 16.1039C6.07158 14.9318 5.48523 13.3995 5.50028 11.8142C5.50028 11.7681 5.50138 11.721 5.50907 11.6585C5.51676 11.5961 5.51676 11.5435 5.51676 11.5018C5.71453 11.5128 6.01667 11.5183 6.42318 11.5183C8.39347 11.5351 10.3543 11.2456 12.2353 10.6601C12.3803 10.9524 12.5315 11.2812 12.689 11.6465ZM8.03167 16.9467C8.57376 15.9315 9.30893 15.0313 10.1961 14.2966C11.0145 13.5377 12.0113 12.9965 13.0944 12.7227C13.6997 14.3895 14.109 16.1207 14.314 17.8816C12.2019 18.704 9.81114 18.3482 8.03167 16.9467ZM13.5317 10.1855C13.6877 10.5187 13.8646 10.9396 14.0624 11.4481C14.8337 11.375 15.6723 11.3385 16.5784 11.3385C17.2244 11.3385 17.865 11.3542 18.5 11.3856C18.4264 9.99221 17.8881 8.66328 16.9706 7.60996C16.0915 8.77561 14.8991 9.66868 13.5317 10.1855ZM15.5324 17.2744C15.3462 15.6604 14.9848 14.0714 14.4546 12.5353C15.1834 12.4835 15.8346 12.4561 16.4081 12.4531C17.0329 12.4531 17.7254 12.4791 18.4857 12.5309C18.3844 13.4894 18.0638 14.4118 17.5485 15.2271C17.0376 16.0507 16.3488 16.7501 15.5324 17.2744Z" fill="white"/>
</svg>

<svg width="24" height="24" fill="none" xmlns="http://www.w3.org/2000/svg"><path fill-rule="evenodd" clip-rule="evenodd" d="M16.169 6.814a6.345 6.345 0 00-4.157-1.496 6.057 6.057 0 00-1.594.22 16.535 16.535 0 012.548 3.538 7.782 7.782 0 003.203-2.262zm-7.106-.779a15.774 15.774 0 012.61 3.507c-1.608.474-3.277.71-4.953.702-.448 0-.786-.01-1.016-.031a6.646 6.646 0 011.242-2.447 6.356 6.356 0 012.117-1.731zm3.626 5.611a7.785 7.785 0 00-3.173 1.669 8.925 8.925 0 00-2.374 2.789 6.273 6.273 0 01-1.642-4.29c0-.046.001-.093.01-.155.007-.063.007-.116.007-.157.198.01.5.016.906.016a19.01 19.01 0 005.812-.858c.145.292.296.621.454.986zm-4.657 5.3a8.86 8.86 0 012.164-2.65 6.665 6.665 0 012.898-1.573 22.857 22.857 0 011.22 5.159 6.402 6.402 0 01-6.282-.935zm5.5-6.76c.156.333.333.754.53 1.262a26.77 26.77 0 012.516-.11c.646 0 1.287.016 1.922.048a6.25 6.25 0 00-1.53-3.776 7.73 7.73 0 01-3.438 2.575zm2 7.088a22.39 22.39 0 00-1.077-4.739 29.9 29.9 0 011.953-.082c.625 0 1.317.026 2.078.078a6.282 6.282 0 01-.938 2.696 6.515 6.515 0 01-2.016 2.047z" fill="#fff"/></svg>
